X: 32478
T: Plains Of Boyle, The
R: hornpipe
M: 4/4
K: Dmajor
|:F>G|A>FD>E F>ED>F|(3ABA G>B A>FD>d|f>ed>f e>dc>e|d>cA>B (3cBA G>B|
A>FD>E F>ED>F|(3ABA G>B A>FD>d|f>ed>c (3ABA (3GAG|F2D2D2:|
|:f>g|(3agf (3gfe f>de>c|d>ef>d B>AF>G|(3ABA F>A d>AF>A|B>AF>D d>ef>g|
(3agf (3gfe f>de>c|d>ef>d B>AF>G|(3aba F>A d>BA>G|F2D2D2:|

